X:7918
T:Jenny's Chickens
R:reel
H:Related to the Scottish tune "Sleepy Maggie", #650.
H:Also related to Sean sa Cheo, #313.
H:See also "The Gravel Walks", #70.
D:Matt Molloy: Heathery Breeze.
D:Paddy Glackin: In Full Spate.
Z:Some people play it in Bdor (g#), others in Bm (g natural)
Z:This tune is also played in Ador.
Z:id:hn-reel-75
M:C|
K:Bm
~f3e fece|~f3d eAce|~f3e fece|f2af eAce:|
fBBA B2de|fB~B2 eAce|fBBA Bcde|f2af eAce|
fB~B2 bBaB|fB~B2 ABce|fBBA Bcde|f2af edcA||
|:B2bB aBgB|~B2fB edcA|B2bB aBgB|1 f2af edcA:|2 f2af eAce||
"Variations:"
f2~f2 fece|f2af e2ce|~f3a fece|f2af eAce:|
fBBA ~B3A|FB~B2 ABce|fBBA ~B3e|fgaf eAce|
fB~B2 aB~B2|fB~B2 eAce|fBBA ~B3e|fgaf eAcA||
|:B2bB aBgB|~f2Bf eAcA|B2bB aBgB|1 f2af eAcA:|2 f2af eAce||


